images/43345.svg

<?xml version="1.0" encoding="UTF-8"?>
<svg xmlns="http://www.w3.org/2000/svg" xmlns:xlink="http://www.w3.org/1999/xlink" width="300pt" height="300pt" viewBox="0 0 300 300" version="1.1">
<defs>
<g>
<symbol overflow="visible" id="glyph0-0">
<path style="stroke:none;" d="M 0.796875 2.828125 L 0.796875 -11.28125 L 8.796875 -11.28125 L 8.796875 2.828125 Z M 1.703125 1.9375 L 7.90625 1.9375 L 7.90625 -10.390625 L 1.703125 -10.390625 Z M 1.703125 1.9375 "/>
</symbol>
<symbol overflow="visible" id="glyph0-1">
<path style="stroke:none;" d="M 1.578125 -11.671875 L 3.703125 -11.671875 L 8.875 -1.90625 L 8.875 -11.671875 L 10.40625 -11.671875 L 10.40625 0 L 8.28125 0 L 3.109375 -9.765625 L 3.109375 0 L 1.578125 0 Z M 1.578125 -11.671875 "/>
</symbol>
<symbol overflow="visible" id="glyph0-2">
<path style="stroke:none;" d="M 1.578125 -11.671875 L 3.15625 -11.671875 L 3.15625 -6.890625 L 8.890625 -6.890625 L 8.890625 -11.671875 L 10.46875 -11.671875 L 10.46875 0 L 8.890625 0 L 8.890625 -5.5625 L 3.15625 -5.5625 L 3.15625 0 L 1.578125 0 Z M 1.578125 -11.671875 "/>
</symbol>
</g>
</defs>
<g id="surface47305">
<rect x="0" y="0" width="300" height="300" style="fill:rgb(100%,100%,100%);fill-opacity:1;stroke:none;"/>
<path style="fill:none;stroke-width:1.2;stroke-linecap:butt;stroke-linejoin:miter;stroke:rgb(0%,0%,0%);stroke-opacity:1;stroke-miterlimit:10;" d="M 48.285156 87.570312 L 55.734375 125.089844 "/>
<path style="fill:none;stroke-width:1.2;stroke-linecap:butt;stroke-linejoin:miter;stroke:rgb(0%,0%,0%);stroke-opacity:1;stroke-miterlimit:10;" d="M 55.734375 125.089844 L 91.949219 137.394531 "/>
<path style="fill:none;stroke-width:1.2;stroke-linecap:butt;stroke-linejoin:miter;stroke:rgb(0%,0%,0%);stroke-opacity:1;stroke-miterlimit:10;" d="M 91.949219 137.394531 L 104.257812 101.179688 "/>
<path style="fill:none;stroke-width:1.2;stroke-linecap:butt;stroke-linejoin:miter;stroke:rgb(0%,0%,0%);stroke-opacity:1;stroke-miterlimit:10;" d="M 91.949219 137.394531 L 79.644531 173.609375 "/>
<path style="fill:none;stroke-width:1.2;stroke-linecap:butt;stroke-linejoin:miter;stroke:rgb(0%,0%,0%);stroke-opacity:1;stroke-miterlimit:10;" d="M 91.949219 137.394531 L 110.058594 143.546875 "/>
<path style="fill:none;stroke-width:1.2;stroke-linecap:butt;stroke-linejoin:miter;stroke:rgb(0%,0%,100%);stroke-opacity:1;stroke-miterlimit:10;" d="M 110.058594 143.546875 L 128.167969 149.699219 "/>
<path style="fill:none;stroke-width:1.2;stroke-linecap:butt;stroke-linejoin:miter;stroke:rgb(0%,0%,100%);stroke-opacity:1;stroke-miterlimit:10;" d="M 128.167969 149.699219 L 131.890625 168.460938 "/>
<path style="fill:none;stroke-width:1.2;stroke-linecap:butt;stroke-linejoin:miter;stroke:rgb(0%,0%,0%);stroke-opacity:1;stroke-miterlimit:10;" d="M 131.890625 168.460938 L 135.617188 187.21875 "/>
<path style="fill:none;stroke-width:1.2;stroke-linecap:butt;stroke-linejoin:miter;stroke:rgb(0%,0%,100%);stroke-opacity:1;stroke-miterlimit:10;" d="M 120.085938 155.207031 L 123.0625 170.210938 "/>
<path style="fill:none;stroke-width:1.2;stroke-linecap:butt;stroke-linejoin:miter;stroke:rgb(0%,0%,0%);stroke-opacity:1;stroke-miterlimit:10;" d="M 123.0625 170.210938 L 126.042969 185.21875 "/>
<path style=" stroke:none;fill-rule:nonzero;fill:rgb(100%,100%,100%);fill-opacity:1;" d="M 122.167969 140.199219 L 134.167969 140.199219 L 134.167969 159.199219 L 122.167969 159.199219 Z M 122.167969 140.199219 "/>
<g style="fill:rgb(0%,0%,100%);fill-opacity:1;">
  <use xlink:href="#glyph0-1" x="122.167969" y="155.050781"/>
</g>
<path style="fill:none;stroke-width:1.2;stroke-linecap:butt;stroke-linejoin:miter;stroke:rgb(0%,0%,0%);stroke-opacity:1;stroke-miterlimit:10;" d="M 135.617188 187.21875 L 121.234375 199.824219 "/>
<path style="fill:none;stroke-width:1.2;stroke-linecap:butt;stroke-linejoin:miter;stroke:rgb(0%,0%,100%);stroke-opacity:1;stroke-miterlimit:10;" d="M 121.234375 199.824219 L 106.851562 212.429688 "/>
<path style="fill:none;stroke-width:1.2;stroke-linecap:butt;stroke-linejoin:miter;stroke:rgb(0%,0%,0%);stroke-opacity:1;stroke-miterlimit:10;" d="M 135.617188 187.21875 L 153.726562 193.371094 "/>
<path style="fill:none;stroke-width:1.2;stroke-linecap:butt;stroke-linejoin:miter;stroke:rgb(0%,0%,100%);stroke-opacity:1;stroke-miterlimit:10;" d="M 153.726562 193.371094 L 171.832031 199.523438 "/>
<path style="fill:none;stroke-width:1.2;stroke-linecap:butt;stroke-linejoin:miter;stroke:rgb(0%,0%,100%);stroke-opacity:1;stroke-miterlimit:10;" d="M 106.851562 212.429688 L 88.742188 206.277344 "/>
<path style="fill:none;stroke-width:1.2;stroke-linecap:butt;stroke-linejoin:miter;stroke:rgb(0%,0%,0%);stroke-opacity:1;stroke-miterlimit:10;" d="M 88.742188 206.277344 L 70.636719 200.121094 "/>
<path style=" stroke:none;fill-rule:nonzero;fill:rgb(100%,100%,100%);fill-opacity:1;" d="M 94.851562 202.929688 L 118.851562 202.929688 L 118.851562 221.929688 L 94.851562 221.929688 Z M 94.851562 202.929688 "/>
<g style="fill:rgb(0%,0%,100%);fill-opacity:1;">
  <use xlink:href="#glyph0-1" x="94.851562" y="217.78125"/>
  <use xlink:href="#glyph0-2" x="106.820312" y="217.78125"/>
</g>
<path style="fill:none;stroke-width:1.2;stroke-linecap:butt;stroke-linejoin:miter;stroke:rgb(0%,0%,0%);stroke-opacity:1;stroke-miterlimit:10;" d="M 70.636719 200.121094 L 52.527344 193.96875 "/>
<path style="fill:none;stroke-width:1.2;stroke-linecap:butt;stroke-linejoin:miter;stroke:rgb(0%,0%,100%);stroke-opacity:1;stroke-miterlimit:10;" d="M 52.527344 193.96875 L 34.417969 187.816406 "/>
<path style="fill:none;stroke-width:1.2;stroke-linecap:butt;stroke-linejoin:miter;stroke:rgb(0%,0%,0%);stroke-opacity:1;stroke-miterlimit:10;" d="M 69.910156 190.371094 L 55.421875 185.449219 "/>
<path style="fill:none;stroke-width:1.2;stroke-linecap:butt;stroke-linejoin:miter;stroke:rgb(0%,0%,100%);stroke-opacity:1;stroke-miterlimit:10;" d="M 55.421875 185.449219 L 40.9375 180.527344 "/>
<path style="fill:none;stroke-width:1.2;stroke-linecap:butt;stroke-linejoin:miter;stroke:rgb(0%,0%,0%);stroke-opacity:1;stroke-miterlimit:10;" d="M 64.117188 207.414062 L 49.632812 202.492188 "/>
<path style="fill:none;stroke-width:1.2;stroke-linecap:butt;stroke-linejoin:miter;stroke:rgb(0%,0%,100%);stroke-opacity:1;stroke-miterlimit:10;" d="M 49.632812 202.492188 L 35.144531 197.570312 "/>
<path style=" stroke:none;fill-rule:nonzero;fill:rgb(100%,100%,100%);fill-opacity:1;" d="M 22.417969 178.316406 L 34.417969 178.316406 L 34.417969 197.316406 L 22.417969 197.316406 Z M 22.417969 178.316406 "/>
<g style="fill:rgb(0%,0%,100%);fill-opacity:1;">
  <use xlink:href="#glyph0-1" x="22.417969" y="193.167969"/>
</g>
<path style="fill:none;stroke-width:1.2;stroke-linecap:butt;stroke-linejoin:miter;stroke:rgb(0%,0%,100%);stroke-opacity:1;stroke-miterlimit:10;" d="M 171.832031 199.523438 L 186.214844 186.917969 "/>
<path style="fill:none;stroke-width:1.2;stroke-linecap:butt;stroke-linejoin:miter;stroke:rgb(0%,0%,0%);stroke-opacity:1;stroke-miterlimit:10;" d="M 186.214844 186.917969 L 200.597656 174.3125 "/>
<path style=" stroke:none;fill-rule:nonzero;fill:rgb(100%,100%,100%);fill-opacity:1;" d="M 159.832031 190.023438 L 183.832031 190.023438 L 183.832031 209.023438 L 159.832031 209.023438 Z M 159.832031 190.023438 "/>
<g style="fill:rgb(0%,0%,100%);fill-opacity:1;">
  <use xlink:href="#glyph0-1" x="159.832031" y="204.875"/>
  <use xlink:href="#glyph0-2" x="171.800781" y="204.875"/>
</g>
<path style="fill:none;stroke-width:1.2;stroke-linecap:butt;stroke-linejoin:miter;stroke:rgb(0%,0%,0%);stroke-opacity:1;stroke-miterlimit:10;" d="M 200.597656 174.3125 L 193.148438 136.796875 "/>
<path style="fill:none;stroke-width:1.2;stroke-linecap:butt;stroke-linejoin:miter;stroke:rgb(0%,0%,0%);stroke-opacity:1;stroke-miterlimit:10;" d="M 208.683594 168.808594 L 202.722656 138.792969 "/>
<path style="fill:none;stroke-width:1.2;stroke-linecap:butt;stroke-linejoin:miter;stroke:rgb(0%,0%,0%);stroke-opacity:1;stroke-miterlimit:10;" d="M 236.816406 186.621094 L 200.597656 174.3125 "/>
<path style="fill:none;stroke-width:1.2;stroke-linecap:butt;stroke-linejoin:miter;stroke:rgb(0%,0%,0%);stroke-opacity:1;stroke-miterlimit:10;" d="M 193.148438 136.796875 L 207.53125 124.191406 "/>
<path style="fill:none;stroke-width:1.2;stroke-linecap:butt;stroke-linejoin:miter;stroke:rgb(0%,0%,100%);stroke-opacity:1;stroke-miterlimit:10;" d="M 207.53125 124.191406 L 221.914062 111.585938 "/>
<path style="fill:none;stroke-width:1.2;stroke-linecap:butt;stroke-linejoin:miter;stroke:rgb(0%,0%,100%);stroke-opacity:1;stroke-miterlimit:10;" d="M 221.914062 111.585938 L 240.023438 117.738281 "/>
<path style="fill:none;stroke-width:1.2;stroke-linecap:butt;stroke-linejoin:miter;stroke:rgb(0%,0%,0%);stroke-opacity:1;stroke-miterlimit:10;" d="M 240.023438 117.738281 L 258.128906 123.890625 "/>
<path style="fill:none;stroke-width:1.2;stroke-linecap:butt;stroke-linejoin:miter;stroke:rgb(0%,0%,100%);stroke-opacity:1;stroke-miterlimit:10;" d="M 222.640625 121.335938 L 237.125 126.257812 "/>
<path style="fill:none;stroke-width:1.2;stroke-linecap:butt;stroke-linejoin:miter;stroke:rgb(0%,0%,0%);stroke-opacity:1;stroke-miterlimit:10;" d="M 237.125 126.257812 L 251.613281 131.183594 "/>
<path style=" stroke:none;fill-rule:nonzero;fill:rgb(100%,100%,100%);fill-opacity:1;" d="M 215.914062 102.085938 L 227.914062 102.085938 L 227.914062 121.085938 L 215.914062 121.085938 Z M 215.914062 102.085938 "/>
<g style="fill:rgb(0%,0%,100%);fill-opacity:1;">
  <use xlink:href="#glyph0-1" x="215.914062" y="116.9375"/>
</g>
<path style="fill:none;stroke-width:1.2;stroke-linecap:butt;stroke-linejoin:miter;stroke:rgb(0%,0%,0%);stroke-opacity:1;stroke-miterlimit:10;" d="M 258.128906 123.890625 L 265.582031 161.410156 "/>
<path style="fill:none;stroke-width:1.2;stroke-linecap:butt;stroke-linejoin:miter;stroke:rgb(0%,0%,0%);stroke-opacity:1;stroke-miterlimit:10;" d="M 265.582031 161.410156 L 236.816406 186.621094 "/>
<path style="fill:none;stroke-width:1.2;stroke-linecap:butt;stroke-linejoin:miter;stroke:rgb(0%,0%,0%);stroke-opacity:1;stroke-miterlimit:10;" d="M 256.773438 157.160156 L 233.761719 177.332031 "/>
</g>
</svg>

<svg xmlns="http://www.w3.org/2000/svg" xmlns:xlink="http://www.w3.org/1999/xlink" width="300pt" height="300pt" viewBox="0 0 300 300"><defs><symbol overflow="visible"><path d="M.797 2.828v-14.11h8V2.83zm.906-.89h6.203v-12.33H1.703zm0 0"/></symbol><symbol overflow="visible" id="a"><path d="M1.578-11.672h2.125l5.172 9.766v-9.766h1.53V0H8.282L3.11-9.766V0H1.577zm0 0"/></symbol><symbol overflow="visible" id="b"><path d="M1.578-11.672h1.578v4.78H8.89v-4.78h1.58V0H8.89v-5.563H3.157V0H1.578zm0 0"/></symbol></defs><g><path fill="#fff" d="M0 0h300v300H0z"/><path d="M48.285 87.57l7.45 37.52M55.734 125.09l36.215 12.305M91.95 137.395l12.308-36.215M91.95 137.395L79.644 173.61M91.95 137.395l18.11 6.152" stroke-width="1.2" stroke="#000" stroke-miterlimit="10" fill="none"/><path d="M110.06 143.547l18.108 6.152M128.168 149.7l3.723 18.76" stroke-width="1.2" stroke="#00f" stroke-miterlimit="10" fill="none"/><path d="M131.89 168.46l3.727 18.76" stroke-width="1.2" stroke="#000" stroke-miterlimit="10" fill="none"/><path d="M120.086 155.207l2.977 15.004" stroke-width="1.2" stroke="#00f" stroke-miterlimit="10" fill="none"/><path d="M123.063 170.21l2.98 15.01" stroke-width="1.2" stroke="#000" stroke-miterlimit="10" fill="none"/><path d="M122.168 140.2h12v19h-12zm0 0" fill="#fff"/><use xlink:href="#a" x="122.168" y="155.051" fill="#00f"/><path d="M135.617 187.22l-14.383 12.604" stroke-width="1.2" stroke="#000" stroke-miterlimit="10" fill="none"/><path d="M121.234 199.824l-14.382 12.606" stroke-width="1.2" stroke="#00f" stroke-miterlimit="10" fill="none"/><path d="M135.617 187.22l18.11 6.15" stroke-width="1.2" stroke="#000" stroke-miterlimit="10" fill="none"/><path d="M153.727 193.37l18.105 6.153M106.852 212.43l-18.11-6.153" stroke-width="1.2" stroke="#00f" stroke-miterlimit="10" fill="none"/><path d="M88.742 206.277l-18.105-6.156" stroke-width="1.2" stroke="#000" stroke-miterlimit="10" fill="none"/><path d="M94.852 202.93h24v19h-24zm0 0" fill="#fff"/><g fill="#00f"><use xlink:href="#a" x="94.852" y="217.781"/><use xlink:href="#b" x="106.82" y="217.781"/></g><path d="M70.637 200.12l-18.11-6.15" stroke-width="1.2" stroke="#000" stroke-miterlimit="10" fill="none"/><path d="M52.527 193.97l-18.11-6.154" stroke-width="1.2" stroke="#00f" stroke-miterlimit="10" fill="none"/><path d="M69.91 190.37l-14.488-4.92" stroke-width="1.2" stroke="#000" stroke-miterlimit="10" fill="none"/><path d="M55.422 185.45l-14.484-4.923" stroke-width="1.2" stroke="#00f" stroke-miterlimit="10" fill="none"/><path d="M64.117 207.414l-14.484-4.922" stroke-width="1.2" stroke="#000" stroke-miterlimit="10" fill="none"/><path d="M49.633 202.492l-14.488-4.922" stroke-width="1.2" stroke="#00f" stroke-miterlimit="10" fill="none"/><path d="M22.418 178.316h12v19h-12zm0 0" fill="#fff"/><use xlink:href="#a" x="22.418" y="193.168" fill="#00f"/><path d="M171.832 199.523l14.383-12.605" stroke-width="1.2" stroke="#00f" stroke-miterlimit="10" fill="none"/><path d="M186.215 186.918l14.383-12.606" stroke-width="1.2" stroke="#000" stroke-miterlimit="10" fill="none"/><path d="M159.832 190.023h24v19h-24zm0 0" fill="#fff"/><g fill="#00f"><use xlink:href="#a" x="159.832" y="204.875"/><use xlink:href="#b" x="171.801" y="204.875"/></g><path d="M200.598 174.313l-7.45-37.516M208.684 168.81l-5.96-30.017M236.816 186.62l-36.218-12.308M193.148 136.797l14.383-12.606" stroke-width="1.2" stroke="#000" stroke-miterlimit="10" fill="none"/><path d="M207.53 124.19l14.384-12.604M221.914 111.586l18.11 6.152" stroke-width="1.2" stroke="#00f" stroke-miterlimit="10" fill="none"/><path d="M240.023 117.738l18.106 6.153" stroke-width="1.2" stroke="#000" stroke-miterlimit="10" fill="none"/><path d="M222.64 121.336l14.485 4.922" stroke-width="1.2" stroke="#00f" stroke-miterlimit="10" fill="none"/><path d="M237.125 126.258l14.488 4.926" stroke-width="1.2" stroke="#000" stroke-miterlimit="10" fill="none"/><path d="M215.914 102.086h12v19h-12zm0 0" fill="#fff"/><use xlink:href="#a" x="215.914" y="116.938" fill="#00f"/><path d="M258.13 123.89l7.452 37.52M265.582 161.41l-28.766 25.21M256.773 157.16l-23.01 20.172" stroke-width="1.2" stroke="#000" stroke-miterlimit="10" fill="none"/></g></svg>
